X:1
T:Längtan till landet
C:Musik: Otto Lindblad
C:Arr: Ivar Widéen
L:1/8
M:none
I:linebreak $
K:G
V:1 treble-8 nm="S A"
V:1
 G2 DD G2 DD | F2 E2 D2 z D | D2 GA B2 Be | d2 AA A2 z2 | B2 BB B2 AB | c2 cB A2 z2 |$ %6
w: En gång i mån- an är|mån- en full, men|ald- rig jag sett hen- om|ram- la om kull.|Stum av be- und- ran hur|myck- et hen tål,|
 F2 FG A2 AB | G2 GD G2 z2 |] %8
w: hö- ja vi glas- en och|drick- a hens skål.|

